src/svg/buildings/university.svg

<?xml version="1.0" encoding="UTF-8" standalone="no"?>
<svg
   width="1200pt"
   height="1200pt"
   version="1.1"
   viewBox="0 0 1200 1200"
   id="svg550"
   sodipodi:docname="university.svg"
   inkscape:version="1.2.2 (b0a8486541, 2022-12-01)"
   xmlns:inkscape="http://www.inkscape.org/namespaces/inkscape"
   xmlns:sodipodi="http://sodipodi.sourceforge.net/DTD/sodipodi-0.dtd"
   xmlns="http://www.w3.org/2000/svg"
   xmlns:svg="http://www.w3.org/2000/svg">
  <defs
     id="defs554" />
  <sodipodi:namedview
     id="namedview552"
     pagecolor="#ffffff"
     bordercolor="#666666"
     borderopacity="1.0"
     inkscape:showpageshadow="2"
     inkscape:pageopacity="0.0"
     inkscape:pagecheckerboard="0"
     inkscape:deskcolor="#d1d1d1"
     inkscape:document-units="pt"
     showgrid="false"
     inkscape:zoom="0.540625"
     inkscape:cx="643.69942"
     inkscape:cy="800.92486"
     inkscape:window-width="2560"
     inkscape:window-height="1011"
     inkscape:window-x="0"
     inkscape:window-y="32"
     inkscape:window-maximized="1"
     inkscape:current-layer="svg550" />
  <path
     id="path546"
     d="M 599.99854 193.19971 L 29.998535 427.19971 L 233.99854 511.19971 L 599.99854 662.39941 L 965.99854 511.19971 L 1063.1982 471.59766 L 1063.1982 815.99707 C 1054.7999 820.79787 1047.5962 826.79879 1041.5962 835.19678 C 1036.7954 843.59517 1034.3965 853.19684 1034.3965 862.79883 C 1034.3965 873.59982 1037.9985 885.59908 1043.9985 893.99707 L 1025.9985 989.99707 C 1024.7993 993.59867 1025.9975 998.39547 1029.5991 1001.9971 C 1031.9975 1005.5987 1035.5999 1006.7988 1040.4009 1006.7988 L 1134.0029 1006.7988 C 1138.8037 1006.7988 1142.4006 1004.3995 1144.8032 1001.9971 C 1147.2016 998.39547 1148.4058 994.79787 1147.2026 989.99707 L 1129.2026 893.99707 C 1136.3976 885.59905 1138.8001 873.60091 1138.8003 862.80029 C 1138.8003 853.1987 1136.4009 843.60123 1130.4009 835.19824 C 1125.6001 826.79985 1118.4023 820.79953 1108.8003 815.99854 L 1108.8003 452.39941 L 1125.6006 445.19971 L 1169.9985 427.19971 L 599.99854 193.19971 z M 246.00146 558.00146 L 246.00146 850.80029 C 246.00146 861.60128 253.20068 871.1983 264.00146 874.80029 C 477.60125 953.99921 704.4014 953.99921 937.20117 874.80029 C 948.00216 871.1987 955.20117 861.60128 955.20117 850.80029 L 955.20117 558.00146 L 608.40088 700.80029 C 606.00248 701.99949 602.40133 702 600.00293 702 L 600 702 C 597.6016 702 595.19869 701.99949 592.80029 700.80029 L 246.00146 558.00146 z " />
</svg>

<?xml version="1.0" encoding="UTF-8"?>
<svg width="1200pt" height="1200pt" version="1.1" viewBox="0 0 1200 1200" xmlns="http://www.w3.org/2000/svg">
 <path d="m600 702c-2.3984 0-4.8008 0-7.1992-1.1992l-346.8-142.8v292.8c0 10.801 7.1992 20.398 18 24 213.6 79.199 440.4 79.199 673.2 0 10.801-3.6016 18-13.199 18-24v-292.8l-346.8 142.8c-2.3984 1.1992-6 1.1992-8.3984 1.1992z"/>
 <path d="m1138.8 862.8c0-9.6016-2.3984-19.199-8.3984-27.602-4.8008-8.3984-12-14.398-21.602-19.199v-363.6l16.801-7.1992 44.398-18-570-234-570 234 204 84 366 151.2 366-151.2 97.199-39.602v344.4c-8.3984 4.8008-15.602 10.801-21.602 19.199-4.8008 8.3984-7.1992 18-7.1992 27.602 0 10.801 3.6016 22.801 9.6016 31.199l-18 96c-1.1992 3.6016 0 8.3984 3.6016 12 2.3984 3.6016 6 4.8008 10.801 4.8008h93.602c4.8008 0 8.3984-2.3984 10.801-4.8008 2.3984-3.6016 3.6016-7.1992 2.3984-12l-18-96c7.1953-8.3984 9.5977-20.398 9.5977-31.199z"/>
</svg>
